!!!!SEGMENT: pl-kozmzk--mzk-m-31--004_szymanowska-maria--preludium-g-moll.krn
!!!cenid: 18xx:440
!!!COM: Szymanowska, Maria
!!!COM-rismid: pe140138
!!!CDT: 1789/12/14-1831/07/25
!!!CNT: Polish
!!!GTL: Vingt Exercices et Préludes pour le Pianoforte
!!!OTL: Preludium g-moll
!!!PDT: 1819
!!!AGN: Secular; Prelude
!!!SMS-siglum: PL-KOZmzk
!!!SMS-shelfmark: mzk/m/31
!!!SMS-shelfwork: 004 G
!!!SMS-variant:
!!!SMS-altvar:
!!!NIFC-rismid: 1001025327
!!!URL-scan: http://repozytorium.nifc.pl/skany/pl-kozmzk-nut--mzkm31
!!!ONB-nifc:
**kern	**kern	**dynam
*part1	*part1	*part1
*staff2	*staff1	*
*I"Organo	*	*
*I'Org.	*	*
*clefF4	*clefG2	*
*k[b-e-]	*k[b-e-]	*
*g:	*g:	*
*M12/8	*M12/8	*
!	!LO:TX:a:t=problem&colon; takty na 11/8&colon; global	!
!	!LO:TX:a:Bi:t=Agitato	!
4r	(8g/L 8b-	.
.	8a/J) 8cc	.
=1	=1	=1
4GG/	8b-\ 8dd	p
.	(8b-^\L 8dd	.
8r	8cc\J) 8ee-	.
4G\ 4B- 4d	8b-`\ 8dd	.
.	(8bb-^\L 8ddd	.
8r	8ccc\J) 8eee-	.
4DD/ 4D	8bb-`\ 8ddd	.
.	(8f#X^/L 8a	.
8r	8g/J) 8b-	.
4D\ 4A 4c	8a\ 8cc	.
.	(8ff#X^\L 8aa	.
8r	8gg\J) 8bb-	.
=2	=2	=2
*	*^	*
4DD/	8aa\ 8ccc	8ryy	.
.	(8f#X^/L 8a	4ryy	.
8r	8g/J) 8b-	.	.
4D\ 4A 4c	8cc/	8a\	.
.	8aa^\L 8ccc	8ryy	.
8r	8bb-\J 8ddd	2..ryy	.
4GG/	8aa`\ 8ccc	.	.
.	8g^/L 8b-	.	.
8r	8a/J 8cc	.	.
4G\ 4B- 4d	8b-\ 8dd	.	.
.	(8gg^\L 8bb-	.	.
8r	8aa\J) 8ccc	.	.
*	*v	*v	*
=3	=3	=3
4BBB-/	8bb-\ 8ddd	.
.	(8g^/L 8b-	.
8r	8a/J) 8cc	.
4BB-\ 4D 4G	8b-`\ 8dd	.
.	(8gg^\L 8bb- 8ddd	.
8r	8ggg\J)	.
4CC/	8eee-\	.
.	(8a/L	.
8r	8cc/J)	.
4C\ 4E- 4A	8ee-\	.
.	(8aa^\L 8ccc	.
8r	8eee-\J)	.
=	=	=
!!linebreak:original
4DD/	8ddd`\	.
.	(8dd^\L 8gg	.
8r	8bb-\J)	.
4D\ 4A 4c	8ddd\	.
.	8a^\L 8cc	.
8r	8ff#X\J	.
8G\ 8B-	8gg`\	.
8E-^\L	(8A/L 8c	.
8D\J	8f#X/J)	.
8GG/	8B-/ 8g	.
=4:|!	=4:|!	=4:|!
4r	(8g\L 8b-	.
.	8dd\J)	.
=5	=5	=5
4GG/	8gg\	f
.	(8f^/L 8bn	.
8r	8dd/J)	.
8D\ 8Bn	8gg\	.
8r	(8gg\L 8bbn 8ddd	.
*clefG2	*	*
!	!	!LO:DY:a
8r	8ggg\J)	p
(8cc`\L 8ee-	4ccc\ 4eee-	.
8dd`\J 8ff	.	.
4ee-\) 4gg	8r	.
.	(8c/L 8e-	.
8r	8g/J)	.
*clefF4	*	*
=6	=6	=6
4FF/	8f/	.
.	(8f^\L 8cc 8ee-	.
8r	8gg\J)	.
4C\ 4A	8ff`\	.
.	(8ff^\L 8ccc 8eee-	.
8r	8ggg\J)	.
*clefG2	*	*
8r	4ddd\ 4fff	.
(8b-`\L 8dd	.	.
8cc`\J 8ee-	8r	.
4dd\) 4ff	8r	.
.	(8B-/L 8d	.
8r	8f/J)	.
=7	=7	=7
!!linebreak:original
*clefF4	*	*
8GG\ 8G	4B-/ 4d 4e-	.
*clefG2	*	*
(8g/L 8b-	.	.
8dd/J	8r	.
4ee-\)	8r	.
.	(8gg\L 8bb-	.
8r	8eee-\J)	.
8r	4aa\ 4ccc 4ddd	.
(8f#X/L 8a	.	.
8cc#X/J)	8r	.
8dd\	8r	.
!	!LO:TX:b:t=ben               marc    -    ca      -       te	!
(8en/L	(8gg\L 8bb-	.
8g/J)	8ddd\J)	.
=8	=8	=8
8f/L	(8ff`\L 8aa 8ccc	.
8f#X/	8ee-`\ 8aa 8ccc	.
8g/	8ee-`\ 8gg 8ccc	.
8a-X/	8ee-`\ 8ff#X 8ccc	.
8an/	8dd`\ 8ff# 8ccc	.
8f#/J	8ee-`\J 8aa 8ccc	.
8g/L	8dd`\L 8ff# 8bb-	.
8d/	8cc`\ 8ff#	.
8e-/	8b-`\ 8gg	.
8c/	8g`\ 8ee-	.
8d/	8b-`\ 8dd	.
*clefF4	*	*
8D/J	8f#X`\J) 8cc	.
=9	=9	=9
!!linebreak:original
4G\	8g/ 8b-	.
.	(8b-\L 8dd	.
8r	8cc\J) 8ee-	.
*clefG2	*	*
8r	4b-\ 4dd	.
(8bb-\L 8ddd	.	.
8ccc\J) 8eee-	8r	.
4bb-`\ 4ddd	8r	.
.	(8a\L 8cc	.
8r	8b-\J) 8dd	.
8r	4a\ 4cc	.
*clefF4	*	*
(8F#X\L 8A	.	.
8G\J) 8B-	8r	.
=10	=10	=10
4A\ 4c	(8f#X/L 8a	.
.	8g/J 8b-	.
*clefG2	*	*
8r	4a/) 4cc	.
8r	.	.
(8aa\L 8ccc	8r	.
8bb-\J 8ddd	8r	.
4aa\) 4ccc	(8g/L 8b-	.
.	8a/J) 8cc	.
8r	4b-\ 4dd	.
*clefF4	*	*
8r	.	.
8G\L 8B-	4r	.
8A\J 8c	.	.
=11	=11	=11
4B-\ 4d	8r	.
.	(8g/L 8b-	.
8r	8dd/J)	.
*clefG2	*	*
8r	4gg^\	.
(8bbn\L 8ddd	.	.
8ggg\J)	8r	.
4ccc\ 4eee-	8r	.
.	(8g/L 8cc	.
8r	8ee-/J)	.
*clefF4	*	*
8r	4gg\	.
(8C\L 8E-	.	.
8A\J)	8r	.
=	=	=
!!linebreak:original
4D\	8r	.
.	(8d/L 8g	.
8r	8b-/J)	.
!	!LO:TX:b:i:t=cresc.	!
4DD/	8dd\	.
.	(8a\L 8cc	.
8r	8ff#X\J)	.
8GG/	8b-\ 8gg	.
(8e-^\L	8aa\L 8ccc	.
8d\J)	8fff#X\J	.
8G\	8bb-\ 8ggg	f
=12:|!	=12:|!	=12:|!
8D/L	4r	.
8BB-/J	.	.
=13	=13	=13
4GG/	8r	.
.	(8f/L 8bn	p
8r	8dd/J)	.
*clefG2	*	*
8r	4gg\	.
(8bbn\L 8ddd	.	.
8ggg\J)	8r	.
4ccc\ 4eee-	8r	.
.	(8g\L 8cc	.
8r	8ee-\J)	.
*clefF4	*	*
8r	4gg\	.
(8E-^\L 8G	.	.
8C\J)	8r	.
=14	=14	=14
4GG/	8r	.
.	(8c/L 8e-	.
8r	8f#X/J)	.
*clefG2	*	*
8r	4cc\	.
(8ee-\L 8ff#X	.	.
8aa\J)	8r	.
4gg\	8r	.
.	8d/L 8g	.
8r	8bn/J	.
*clefF4	*	*
8r	4dd\	.
(8D/L	.	.
8BBn/J)	8r	.
=15	=15	=15
*^	*	*
!!linebreak:original
4GG\	8re	4ryy	.
.	(8F/L 8Bn	.	.
8rCC	8d/J)	4ryy	.
*clefG2	*	*	*
8re	4eee-/	.	.
(8bn\L 8dd	.	4ryy	.
8gg\J)	8rbbb	.	.
4cc\ 4ee-	8rbbb	8ryy	.
.	8ryy	(8G/L 8c	.
8re	2ryy	8e-/J)	.
*clefF4	*	*	*
8rGG	.	4g/	.
8E-\L	.	.	.
8C\J	.	8r	.
*v	*v	*	*
=16	=16	=16
!	!LO:TX:b:i:t=cresc.	!
4GG/	8r	.
!	!LO:TX:b:t=poco        a                   poco         cre        -        scen                  -                do.	!
.	8c/L 8e-	.
8r	8f#X/J	.
8r	4.cc^\	.
(8F#X^\L	.	.
8E-\J)	.	.
4FF#X/	8r	.
.	8f#/L	.
8r	8a/J	.
8r	4.ee-^\	.
(8F#^\L	.	.
8E-\J)	.	.
=17	=17	=17
4GG/	8r	.
.	8a\L 8cc	.
8r	8ee-\J	.
8r	4.aa^\	.
(8F#X^\L	.	.
8E-\J)	.	.
4FF#X/	8r	.
.	8ee-\L 8ff#X	.
8r	8aa\J	.
8r	4.eee-^\	.
(8F#^\L	.	.
8E-\J)	.	.
=18	=18	=18
*	*^	*
!!pagebreak:original
2.GG\ 2.G	8bb-\L 8ddd	4ryy	f
.	8aa\	.	.
.	8gg\J	4ryy	.
.	8b-T\L	.	.
.	8a\	4ryy	.
.	8g\J	.	.
2.AA\ 2.A	8ff#X\L	4ccc/	.
.	8ee-\	.	.
.	8dd\J	2ryy	.
.	8ccT\L	.	.
.	8b-\	.	.
.	8a\J	.	.
=19	=19	=19	=19
4.BB-\ 4.B-	4gg/	8dd\L	.
.	.	8b-\	.
.	4ryy	8g\J	.
4.BBn\ 4.Bn	.	8a-XT\L	.
.	1ryy	8g\	.
.	.	8ff\J	sf
8C\L 8c	.	8cc\L 8ee-	.
8AA\ 8A	.	8f\ 8ff	.
8BB\J 8B	.	8b-\J 8dd	.
8GG\L 8G	.	8e-\L 8ee-	.
8AA\ 8A	.	8a-\ 8cc	.
8FF#X\J 8F#X	.	8d\J 8dd	.
*	*v	*v	*
=20	=20	=20
8GG/L 8G	8g/L 8b-	<
8FF/ 8F	8a-X/ 8bn	.
8EEn/J 8En	8g/J 8cc	.
8EE-X/L 8E-X	8g\L 8b 8cc#X	.
8DD/ 8D	8g\ 8b 8dd	.
8CC#X/J 8C#X	8g\J 8b 8een	.
4DD/ 4D	4g\ 4b 4dd	.
8r	8r	[
4D\ 4d	4a-\ 4ccn 4ff#X	f
8r	8r	.
=21	=21	=21
*	*^	*
4GG\ 4G	8gg/	8b-\L 8dd	.
.	8ryy	8at\	.
8r	8ryy	8g\J	.
4DD/ 4D	4f#X/	8e-\L	.
.	.	8dt\	.
8r	8ryy	8c\J	.
2GGG;/ 2GG	2g;/	2B-/ 2d	.
*	*v	*v	*
==	==	==
*-	*-	*-
!!!system-decoration: {(s1,s2)}
!!!ENC: Tomasz Grochalski
!!!END: 15.06.2020 r.
